X:1
T:Austin Tierneys'
M:C
L:1/8
Q:80
C:Arr. by T. Tully
S:Reel
K:HP
[| f | \
{g}eA{gAGAG}A2{gAGAG}A2ae | \
{gcecG}c2ac{g}Bc{gcecG}c2 | \
GA{gAGAG}A2{gAGAG}A2{gcd}ce |
af{g}ec{gdedc}d2cd{g}eA{gAGAG}A2{gAGAG}A2ae | \
{gcecG}c2ac{g}Bc{gcecG}c2 | \
GA{gAGAG}A2{gAGAG}A2{gcd}ce |
af{g}ec{gdedc}d2|] [ | \
{g}cd | \
{gef}e2ae{g}feae |
{gdedG}c2ae{g}c{d}A{g}cd | \
{gef}e2ae{g}fe{g}fg | \
af{g}ec{gdedc}d2cd{gef}e2ae{g}feae |
{gdedG}c2ae{g}c{d}A{g}cd | \
d{e}d{c}dBc{e}c{G}cB | \
{g}AB{gcd}ce{ag}a2|]
